Obsidian-SemiLight/actions/24s/edit-select-none.svg

<svg viewBox="0 0 24 24" xmlns="http://www.w3.org/2000/svg"><path d="m4 4v1 3h1v-3h3v-1h-3zm12 0v1h3v3h1v-4zm-10 2v5h5v-5zm7 0v5h5v-5zm-6 1h3v3h-3zm7 0h3v3h-3zm-8 6v5h5v-5zm1 1h3v3h-3zm-3 2v4h1 3v-1h-3v-3z" fill="#4d4d4d"/><path d="m14.990234 14-.990234.990234 2.009766 2.009766-2.009766 2.009766.990234.990234 2.009766-2.009766 2.009766 2.009766.990234-.990234-2.009766-2.009766 2.009766-2.009766-.990234-.990234-2.009766 2.009766z" fill="#da4453"/></svg>

<svg xmlns="http://www.w3.org/2000/svg" viewBox="0 0 24 24">
  <defs id="defs3051">
    <style type="text/css" id="current-color-scheme">
      .ColorScheme-Text {
        color:#4d4d4d;
      }
      .ColorScheme-NegativeText {
        color:#da4453;
      }
      </style>
  </defs>
  <path 
     style="fill:currentColor;fill-opacity:1;stroke:none" 
     d="M 4 4 L 4 5 L 4 8 L 5 8 L 5 5 L 8 5 L 8 4 L 5 4 L 4 4 z M 16 4 L 16 5 L 19 5 L 19 8 L 20 8 L 20 4 L 16 4 z M 6 6 L 6 11 L 11 11 L 11 6 L 6 6 z M 13 6 L 13 11 L 18 11 L 18 6 L 13 6 z M 7 7 L 10 7 L 10 10 L 7 10 L 7 7 z M 14 7 L 17 7 L 17 10 L 14 10 L 14 7 z M 6 13 L 6 18 L 11 18 L 11 13 L 6 13 z M 7 14 L 10 14 L 10 17 L 7 17 L 7 14 z M 4 16 L 4 20 L 5 20 L 8 20 L 8 19 L 5 19 L 5 16 L 4 16 z "
     class="ColorScheme-Text"/>
  <path
     style="fill:currentColor;fill-opacity:1;stroke:none" 
     d="M 14.990234 14 L 14 14.990234 L 16.009766 17 L 14 19.009766 L 14.990234 20 L 17 17.990234 L 19.009766 20 L 20 19.009766 L 17.990234 17 L 20 14.990234 L 19.009766 14 L 17 16.009766 L 14.990234 14 z "
     class="ColorScheme-NegativeText"
     />
</svg>
